X:40
T: The Gold Rush
C: Bill Monroe
S: MandoZine TablEdit Archives
S: GoldRush1-A-Monroe.tef
Z: TablEdited by Mike Stangeland for MandoZine
N: Basic version
L: 1/8
Q: 460
M: 4/4
K: A
 =z2 EF AB cd | "A"[e2e2] ef ed cd | e4 z2 =g2 | (3f=gf ec (3BcB AF | E4 z2 EF |
 A2 AB AF EF | AG AB c2 AB | "A"cB Ac "E"BA GB | "A"A2 E2 FA Bd |
 "A"e2 ef ed cd | [e2e2] [ee][ee] e2 =g2 | (3f=gf ec (3BcB AF | E4 z2 EF |
 A2 AB AF EF | AG AB c2 AB | "A"cB Ac "E"BA GB | "A"A4 z2 cB |
|: "A"A2 F2 E2 z2| [eAFD][eAFD] z2"D" "A"[e4A4E4C4] | "A"[A2E2] [A2E2] EF AB | [e2c2] [e2c2] z2 cB |
 A2 F2 E2 z2| [eAFD][eAFD] z2"D" "A"[e2A2E2C2] AB | "A"cB Ac "E"BA GB |1 "A"A6 cB :|2 "A"A8 |
